X:1
T:Title
%%score { 1 | 2 }
L:1/8
M:4/4
K:D
V:1 treble nm="Grand Piano"
V:2 bass 
V:1
 z4 z2 z[Q:1/4=100] [A,DF][Q:1/4=90] | [A,DF]4 [^A,EF]3 [A,EF] | [A,^DF]2 [A,DG][A,DF] [=DB]4 | %3
 [CE]2 [CF][CE] [DB]2 [DA]2 |[M:2/4] [CE]2 [CF][CE] | [DB]2 [DA]2 | %6
[M:4/4] [DB]2 [Ec][Ec] [Dd]2 [B,DF]2 |[M:9/8] [B,DG]2 [A,CF][K:bass] [G,CE] [G,CE]2 [F,D]3 | %8
[M:4/4] [G,B,D]8 | [F,A,D]6 z2 |] %10
V:2
 z4 z2 z D, | D,4 C,3 C, | B,,2 B,,B,, [E,^G,]4 | [A,,G,]2 [A,,G,][A,,G,] [A,,F,]2 [A,,F,]2 | %4
[M:2/4] [A,,G,]2 [A,,G,][A,,G,] | [A,,F,]2 [A,,F,]2 | %6
[M:4/4] [A,,G,]2 [A,,G,][^A,,G,] [B,,F,]2 B,,2 |[M:9/8] E,2 A,, A,, D,2 D,3 |[M:4/4] G,,8 | %9
 D,6 z2 |] %10

